X:1
T: Fond Farewell
C:
R:Reel
Q: 232
K:G
M:4/4
L:1/8
|:BA|G2 B2 AB c2|BG Bd e2 fg|d2 B2 Bc dB|cB AG E2 DE|
G2 B2 AB c2|Bc d2 e2 fg|d2 B2 cB Ad|B2 G2 G2:|
|:gf|e2 g2 d2 B2|cB Ad B2 Bc|d2 g2 Bc dB|cB AG E2 DE|
G2 B2 AB c2|dG Bd e2 fg|d2 B2 cB Ad|B2 G2 G2:|
